X:201 
T:Tabby Cat* (polka), The  
F:file ID: cre.5/201tabby
B:CRE5.097 (gan ainm)
N:No repeats in CRE.
M:2/4
L:1/8
Q:120
R:polka
K:D
B|AD FA|dB c2|gB cd|ec dB|
AD FA|dB c2|gB cd|ec d:|
|:e|f>e fd|cd ef|g>f gB|ed Ac|
f>e fd|cd ef|a>f gB|ec d:|

%%%

